X:1
T:Paddy Rainey's Jig
M:6/8
L:1/8
C:Jesse Smith
R:jig
D:Danu:Think Before You Think
Z:Devin McCabe
R:jig
K:F
c3 FAc | faf g2c | efg cec | BdB FGG |
ABc FAG | Acf a2g | fec BGC | CAG FA/2G/2F ::
K:Gm
cFF FAB | cFG EFC | G_Ac Bc/c/B | dee ged |
Bcc ABc | GBe fgg | f=ec BGC | CAG FF/F/F :|
